!! 00000] TT[WS
!!!OTL: Xiaoguafu shangfen
!!!ARE: Asia, China, Shanxi Qinyuan
!! Ethnic Group: Han
!! WII, 154
!!!SCT: J0635
!!!YEM: Copyright 1995, estate of Helmut Schaffrath.
**kern
*ICvox
*Ivox
*M2/4
*k[f#c#]
*D:
{4.dd
8ff#
=1
8ee
8ff#
8b
8a
=2
8b
16a
16b
8a
8f#
=3
2a}
=4
{4.dd
8ff#
=5
8ee
8ff#
8b
8a
=6
8dd
8b
8a
8f#
=7
2a}
=8
{8a
8b
4dd
=9
8ee
4ff#
8ee
=10
4.dd
8ee
=11
8b
8d
8a
8f#}
=12
{8e
8f#
8a
8b
=13
4dd
8f#
8e
=14
8a
8f#
8e
8B
=15
2d}
=16
{8.dd
16b
8.dd
16b
=17
8a
8b
8a
8f#
=18
8e
8f#
8a
8b
=19
4dd
8f#
8e
=20
8a
8f#
8e
8B
=21
2d}
==
!!!AGN: Xiaodiao. Qingge, Aisu
!!!ONB: ESAC (Essen Associative Code) Database: CHINA
!!!AMT: simple duple
!!!AIN: vox
!!!EED: Helmut Schaffrath
!!!EEV: 1.0
*-
